tools/download-figma-icons/icons/outlined-medium/landlord.svg

<svg width="24" height="25" viewBox="0 0 24 25" fill="none" xmlns="http://www.w3.org/2000/svg">
<path fill-rule="evenodd" clip-rule="evenodd" d="M7.20931 3.81681C7.41331 3.77106 7.62031 3.74931 7.8243 3.74931C8.7828 3.74931 9.70454 4.23156 10.24 5.0528C10.4103 5.31455 10.7245 5.4413 11.0313 5.37605L18.1 3.80781L18.7637 4.23831L18.3444 4.90955L17.5277 5.0903C17.3852 5.1218 17.2555 5.1953 17.1527 5.3003L16.5077 5.96179L15.643 5.63479C15.364 5.53055 15.049 5.5988 14.8412 5.81254L14.1955 6.47479L13.3307 6.14704C13.1943 6.09529 13.045 6.08479 12.9033 6.11629L11.2353 6.48679C10.9375 6.55279 10.7088 6.79428 10.6585 7.09578C10.4658 8.25077 9.59954 9.16201 8.4513 9.41626C6.90556 9.7635 5.37183 8.78176 5.02908 7.23903C4.68634 5.69479 5.66433 4.15956 7.20931 3.81681ZM7.82805 10.9853C8.14155 10.9853 8.4588 10.9515 8.77679 10.881C10.3533 10.5308 11.581 9.36602 12.0228 7.84879L13.009 7.62979L14.125 8.05128C14.4025 8.15553 14.719 8.08653 14.9267 7.87354L15.5717 7.21129L16.4372 7.53904C16.7147 7.64254 17.0305 7.57504 17.2397 7.36054L18.0707 6.50705L18.9759 6.30605C19.1724 6.26255 19.3434 6.14255 19.4492 5.97156L20.4264 4.40857C20.6432 4.06133 20.5419 3.60458 20.1984 3.38183L18.6527 2.37834C18.4839 2.26884 18.2792 2.23209 18.082 2.27484L11.179 3.80633C10.141 2.57784 8.47605 1.9996 6.88381 2.35209C4.53259 2.87409 3.0431 5.21181 3.56435 7.56454C4.01509 9.59777 5.82557 10.9853 7.82805 10.9853ZM22.1953 17.5958L11.9399 22.5945L1.49998 19.3463V14.1901H6.71243C9.68015 14.1901 10.2419 15.9503 10.2614 16.0155C10.3491 16.3433 10.6469 16.5713 10.9859 16.5713H16.0513C16.0528 16.5713 16.0536 16.572 16.0543 16.572C16.3528 16.572 16.5958 16.815 16.5958 17.1128C16.5958 17.4113 16.3528 17.6535 16.0543 17.6535H9.10791C8.69316 17.6535 8.35792 17.9888 8.35792 18.4035C8.35792 18.8183 8.69316 19.1535 9.10791 19.1535H16.0543C16.3948 19.1535 16.7106 19.062 16.9926 18.915C16.9982 18.9126 17.004 18.9116 17.0098 18.9106C17.0162 18.9095 17.0226 18.9084 17.0286 18.9053L21.7213 16.6215C21.989 16.4918 22.3145 16.6028 22.445 16.8705C22.5763 17.1398 22.4638 17.4645 22.1953 17.5958ZM23.7935 16.2135C23.3008 15.2026 22.076 14.7788 21.0643 15.2731L18.0576 16.7363C17.8806 15.7928 17.0548 15.0766 16.0618 15.0728C16.0607 15.0728 16.0594 15.0724 16.0581 15.0721C16.0568 15.0717 16.0555 15.0713 16.0543 15.0713H11.4764C11.0219 14.2178 9.7784 12.6901 6.71243 12.6901H0.749992C0.335997 12.6901 0 13.0253 0 13.4401V19.8983C0 20.2268 0.213748 20.5178 0.527245 20.6145L11.7779 24.1147C11.7795 24.1151 11.7812 24.1153 11.7831 24.1155H11.7831C11.7848 24.1157 11.7866 24.1159 11.7884 24.1162C11.8544 24.1365 11.9234 24.1462 11.9924 24.147C11.9939 24.147 11.9952 24.1473 11.9965 24.1477C11.9978 24.1481 11.9991 24.1485 12.0006 24.1485H12.0014C12.0016 24.1485 12.0018 24.1484 12.0019 24.1483C12.002 24.1482 12.0021 24.1482 12.0021 24.1481C12.0023 24.1479 12.0025 24.1477 12.0029 24.1477C12.1056 24.1477 12.2024 24.12 12.2939 24.0802C12.2987 24.0786 12.3037 24.0781 12.3089 24.0776C12.3158 24.0769 12.323 24.0762 12.3299 24.0727L22.853 18.9435C23.864 18.4515 24.2863 17.2268 23.7935 16.2135ZM7.89755 6.60169C8.0183 7.14843 7.6733 7.69068 7.12656 7.81143C6.57981 7.93293 6.03832 7.58793 5.91682 7.04119C5.79607 6.49369 6.14107 5.9522 6.68781 5.8307C7.23456 5.7092 7.77605 6.0542 7.89755 6.60169Z" fill="black"/>
</svg>

<svg xmlns="http://www.w3.org/2000/svg" width="24" height="25" fill="none" viewBox="0 0 24 25"><path fill="currentColor" fill-rule="evenodd" d="M7.21 3.817q.306-.068.614-.068c.959 0 1.88.483 2.416 1.304.17.262.485.388.791.323L18.1 3.808l.664.43-.42.672-.816.18a.75.75 0 0 0-.375.21l-.645.662-.865-.327a.75.75 0 0 0-.802.178l-.646.662-.864-.328a.75.75 0 0 0-.428-.03l-1.668.37a.75.75 0 0 0-.576.609 2.85 2.85 0 0 1-2.208 2.32 2.868 2.868 0 1 1-1.242-5.6m.618 7.168q.47 0 .949-.104a4.35 4.35 0 0 0 3.246-3.032l.986-.22 1.116.422a.75.75 0 0 0 .802-.177l.645-.663.865.328a.75.75 0 0 0 .803-.178l.83-.854.906-.2a.75.75 0 0 0 .473-.335l.977-1.563a.75.75 0 0 0-.228-1.027l-1.545-1.004a.75.75 0 0 0-.571-.103l-6.903 1.531a4.4 4.4 0 0 0-4.295-1.454 4.376 4.376 0 0 0-3.32 5.213 4.375 4.375 0 0 0 4.264 3.42m14.367 6.61-10.255 5L1.5 19.346V14.19h5.212c2.968 0 3.53 1.76 3.55 1.826a.75.75 0 0 0 .724.555h5.065l.003.001a.542.542 0 1 1 0 1.082H9.108a.75.75 0 1 0 0 1.5h6.946c.34 0 .657-.092.939-.239l.017-.004.019-.006 4.692-2.283a.543.543 0 0 1 .724.248.543.543 0 0 1-.25.726m1.599-1.381a2.043 2.043 0 0 0-2.73-.94l-3.006 1.462a2.04 2.04 0 0 0-1.996-1.663h-.004l-.004-.002h-4.578c-.454-.853-1.698-2.38-4.764-2.38H.75a.75.75 0 0 0-.75.75v6.457c0 .329.214.62.527.716l11.25 3.5.006.002h.005a.7.7 0 0 0 .213.032h.001c.104 0 .2-.028.292-.068l.015-.002q.01-.001.02-.005l10.524-5.13a2.045 2.045 0 0 0 .94-2.73M7.898 6.602a1.015 1.015 0 1 1-1.982.438 1.015 1.015 0 0 1 1.982-.438" clip-rule="evenodd"/></svg>
